humanity-icon-theme/Humanity-Dark/apps/22/nm-stage03-connecting06.svg

<?xml version="1.0" encoding="UTF-8" standalone="no"?>
<!-- Created with Inkscape (http://www.inkscape.org/) -->

<svg
   xmlns:svg="http://www.w3.org/2000/svg"
   xmlns="http://www.w3.org/2000/svg"
   version="1.0"
   width="22"
   height="22"
   id="svg3315">
  <defs
     id="defs3317" />
  <path
     d="M 9.5033445,8.02465 7.0031189,3.6941311"
     id="path3279"
     style="opacity:0.2;fill:none;stroke:#878787;stroke-width:1px;stroke-linecap:round;stroke-linejoin:miter;stroke-opacity:1" />
  <path
     d="M 16.009358,19.293393 13.507999,14.960914"
     id="path3281"
     style="fill:none;stroke:#878787;stroke-width:1px;stroke-linecap:round;stroke-linejoin:miter;stroke-opacity:1" />
  <path
     d="M 8.6737198,8.661245 5.1378658,5.1253904"
     id="path2629"
     style="opacity:0.175;fill:none;stroke:#878787;stroke-width:1px;stroke-linecap:round;stroke-linejoin:miter;stroke-opacity:1" />
  <path
     d="M 17.874612,17.862134 14.337156,14.324679"
     id="path2631"
     style="opacity:0.875;fill:none;stroke:#878787;stroke-width:1px;stroke-linecap:round;stroke-linejoin:miter;stroke-opacity:1" />
  <path
     d="M 8.0371257,9.49087 3.7066069,6.9906435"
     id="path3403"
     style="opacity:0.15;fill:none;stroke:#878787;stroke-width:1px;stroke-linecap:round;stroke-linejoin:miter;stroke-opacity:1" />
  <path
     d="M 19.305871,15.996881 14.97339,13.495524"
     id="path3405"
     style="opacity:0.75;fill:none;stroke:#878787;stroke-width:1px;stroke-linecap:round;stroke-linejoin:miter;stroke-opacity:1" />
  <path
     d="M 7.6369469,10.45699 2.8068799,9.162775"
     id="path3407"
     style="opacity:0.125;fill:none;stroke:#878787;stroke-width:1px;stroke-linecap:round;stroke-linejoin:miter;stroke-opacity:1" />
  <path
     d="m 20.205597,13.824749 -4.832254,-1.2948"
     id="path3409"
     style="opacity:0.675;fill:none;stroke:#878787;stroke-width:1px;stroke-linecap:round;stroke-linejoin:miter;stroke-opacity:1" />
  <path
     d="M 7.5004516,11.493764 2.5,11.493763"
     id="path3415"
     style="opacity:0.1;fill:none;stroke:#878787;stroke-width:1px;stroke-linecap:round;stroke-linejoin:miter;stroke-opacity:1" />
  <path
     d="m 20.512478,11.493763 -5.002717,0"
     id="path3417"
     style="opacity:0.6;fill:none;stroke:#878787;stroke-width:1px;stroke-linecap:round;stroke-linejoin:miter;stroke-opacity:1" />
  <path
     d="M 7.6369472,12.530538 2.8068803,13.824749"
     id="path3419"
     style="opacity:0.075;fill:none;stroke:#878787;stroke-width:1px;stroke-linecap:round;stroke-linejoin:miter;stroke-opacity:1" />
  <path
     d="m 20.205598,9.162777 -4.832254,1.294799"
     id="path3421"
     style="opacity:0.55;fill:none;stroke:#878787;stroke-width:1px;stroke-linecap:round;stroke-linejoin:miter;stroke-opacity:1" />
  <path
     d="M 8.0371267,13.496656 3.7066076,15.996881"
     id="path3423"
     style="opacity:0.05;fill:none;stroke:#878787;stroke-width:1px;stroke-linecap:round;stroke-linejoin:miter;stroke-opacity:1" />
  <path
     d="M 19.30587,6.9906423 14.97339,9.492002"
     id="path3425"
     style="opacity:0.5;fill:none;stroke:#878787;stroke-width:1px;stroke-linecap:round;stroke-linejoin:miter;stroke-opacity:1" />
  <path
     d="M 8.6737222,14.32628 5.1378673,17.862134"
     id="path3427"
     style="opacity:0.025;fill:none;stroke:#878787;stroke-width:1px;stroke-linecap:round;stroke-linejoin:miter;stroke-opacity:1" />
  <path
     d="M 17.874612,5.1253904 14.337156,8.662845"
     id="path3429"
     style="opacity:0.45;fill:none;stroke:#878787;stroke-width:1px;stroke-linecap:round;stroke-linejoin:miter;stroke-opacity:1" />
  <path
     d="M 16.009358,3.6941304 13.508001,8.026611"
     id="path3433"
     style="opacity:0.4;fill:none;stroke:#878787;stroke-width:1px;stroke-linecap:round;stroke-linejoin:miter;stroke-opacity:1" />
  <path
     d="M 13.837226,2.7944048 12.542427,7.6266591"
     id="path3437"
     style="opacity:0.35;fill:none;stroke:#878787;stroke-width:0.99999994px;stroke-linecap:round;stroke-linejoin:miter;stroke-opacity:1" />
  <path
     d="m 11.506239,2.4875233 0,5.0027182"
     id="path2407"
     style="opacity:0.3;fill:none;stroke:#878787;stroke-width:1px;stroke-linecap:round;stroke-linejoin:miter;stroke-opacity:1" />
  <path
     d="M 9.1752515,2.7944053 10.470051,7.626659"
     id="path2413"
     style="opacity:0.25;fill:none;stroke:#878787;stroke-width:1px;stroke-linecap:round;stroke-linejoin:miter;stroke-opacity:1" />
  <path
     d="M 13.837226,20.19312 12.542427,15.360866"
     id="path2401"
     style="opacity:0;fill:none;stroke:#878787;stroke-width:1px;stroke-linecap:round;stroke-linejoin:miter;stroke-opacity:1" />
  <path
     d="M 9.1752535,20.19312 10.470051,15.360866"
     id="path2405"
     style="opacity:0;fill:none;stroke:#878787;stroke-width:1px;stroke-linecap:round;stroke-linejoin:miter;stroke-opacity:1" />
  <path
     d="m 11.50624,20.5 -2e-6,-5.002717"
     id="path2410"
     style="opacity:0;fill:none;stroke:#878787;stroke-width:1px;stroke-linecap:round;stroke-linejoin:miter;stroke-opacity:1" />
  <path
     d="M 7.0031191,19.293393 9.5044775,14.960914"
     id="path2414"
     style="opacity:0;fill:none;stroke:#878787;stroke-width:1px;stroke-linecap:round;stroke-linejoin:miter;stroke-opacity:1" />
</svg>

<?xml version="1.0" encoding="UTF-8" standalone="no"?>
<!-- Created with Inkscape (http://www.inkscape.org/) -->
<svg id="svg3315" xmlns="http://www.w3.org/2000/svg" height="22" width="22" version="1.0">
 <path id="path3279" style="opacity:.2;stroke:#878787;stroke-linecap:round;stroke-width:1px;fill:none" d="m9.5033 8.0246-2.5002-4.3305"/>
 <path id="path3281" style="stroke:#878787;stroke-linecap:round;stroke-width:1px;fill:none" d="m16.009 19.293-2.501-4.332"/>
 <path id="path2629" style="opacity:.175;stroke:#878787;stroke-linecap:round;stroke-width:1px;fill:none" d="m8.6737 8.6612-3.5358-3.5358"/>
 <path id="path2631" style="opacity:.875;stroke:#878787;stroke-linecap:round;stroke-width:1px;fill:none" d="m17.875 17.862-3.538-3.537"/>
 <path id="path3403" style="opacity:.15;stroke:#878787;stroke-linecap:round;stroke-width:1px;fill:none" d="m8.0371 9.4909-4.3305-2.5003"/>
 <path id="path3405" style="opacity:.75;stroke:#878787;stroke-linecap:round;stroke-width:1px;fill:none" d="m19.306 15.997-4.333-2.501"/>
 <path id="path3407" style="opacity:.125;stroke:#878787;stroke-linecap:round;stroke-width:1px;fill:none" d="m7.6369 10.457-4.83-1.2942"/>
 <path id="path3409" style="opacity:.675;stroke:#878787;stroke-linecap:round;stroke-width:1px;fill:none" d="m20.206 13.825-4.8323-1.2948"/>
 <path id="path3415" style="opacity:.1;stroke:#878787;stroke-linecap:round;stroke-width:1px;fill:none" d="m7.5005 11.494h-5.0005"/>
 <path id="path3417" style="opacity:.6;stroke:#878787;stroke-linecap:round;stroke-width:1px;fill:none" d="m20.512 11.494h-5.0027"/>
 <path id="path3419" style="opacity:.075;stroke:#878787;stroke-linecap:round;stroke-width:1px;fill:none" d="m7.6369 12.531-4.83 1.294"/>
 <path id="path3421" style="opacity:.55;stroke:#878787;stroke-linecap:round;stroke-width:1px;fill:none" d="m20.206 9.1628-4.8323 1.2948"/>
 <path id="path3423" style="opacity:.05;stroke:#878787;stroke-linecap:round;stroke-width:1px;fill:none" d="m8.0371 13.497-4.3305 2.5"/>
 <path id="path3425" style="opacity:.5;stroke:#878787;stroke-linecap:round;stroke-width:1px;fill:none" d="m19.306 6.9906-4.333 2.5014"/>
 <path id="path3427" style="opacity:.025;stroke:#878787;stroke-linecap:round;stroke-width:1px;fill:none" d="m8.6737 14.326-3.5358 3.536"/>
 <path id="path3429" style="opacity:.45;stroke:#878787;stroke-linecap:round;stroke-width:1px;fill:none" d="m17.875 5.1254-3.538 3.5374"/>
 <path id="path3433" style="opacity:.4;stroke:#878787;stroke-linecap:round;stroke-width:1px;fill:none" d="m16.009 3.6941-2.501 4.3325"/>
 <path id="path3437" style="opacity:.35;stroke:#878787;stroke-linecap:round;stroke-width:1px;fill:none" d="m13.837 2.7944-1.295 4.8323"/>
 <path id="path2407" style="opacity:.3;stroke:#878787;stroke-linecap:round;stroke-width:1px;fill:none" d="m11.506 2.4875v5.0027"/>
 <path id="path2413" style="opacity:.25;stroke:#878787;stroke-linecap:round;stroke-width:1px;fill:none" d="m9.1753 2.7944 1.2947 4.8323"/>
 <path id="path2401" style="opacity:0;stroke-width:1px" d="m13.837 20.193-1.295-4.832"/>
 <path id="path2405" style="opacity:0;stroke-width:1px" d="m9.1753 20.193 1.2947-4.832"/>
 <path id="path2410" style="opacity:0;stroke-width:1px" d="m11.506 20.5-0.000002-5.0027"/>
 <path id="path2414" style="opacity:0;stroke-width:1px" d="m7.0031 19.293 2.5014-4.332"/>
</svg>
